Yaru++/apps/scalable/goa-account-google.svg

<svg height="256" width="256" xmlns="http://www.w3.org/2000/svg" xmlns:xlink="http://www.w3.org/1999/xlink"><linearGradient id="a" gradientUnits="userSpaceOnUse" x1="88" x2="488" y1="88" y2="488"><stop offset="0" stop-opacity=".588235"/><stop offset="1" stop-opacity=".205556"/></linearGradient><filter id="b" color-interpolation-filters="sRGB" height="1.088" width="1.106" x="-.05" y="-.04"><feGaussianBlur stdDeviation="8.48"/></filter><filter id="c" color-interpolation-filters="sRGB" height="1.022" width="1.026" x="-.01" y="-.01"><feGaussianBlur stdDeviation="2.12"/></filter><path d="m141.84323 74c-70.59344 0-78.18921 7.250835-77.84323 77.98706v146.01294 146.01294c-.34598 70.73623 7.24979 77.98706 77.84323 77.98706h292.31354c70.59344 0 79.78033-7.27652 77.84323-77.98706v-146.01294-146.01294c0-70.737067-7.24979-77.98706-77.84323-77.98706z" filter="url(#c)" opacity=".1" transform="matrix(.5 0 0 .5 -16.116488 -20.825537)"/><path d="m141.84323 74c-70.59344 0-78.18921 7.250835-77.84323 77.98706v146.01294 146.01294c-.34598 70.73623 7.24979 77.98706 77.84323 77.98706h292.31354c70.59344 0 79.78033-7.27652 77.84323-77.98706v-146.01294-146.01294c0-70.737067-7.24979-77.98706-77.84323-77.98706z" fill="url(#a)" filter="url(#b)" opacity=".3" transform="matrix(.5 0 0 .5 -16.116488 -20.825235)"/><path d="m53.695112 13.174464c-36.098811 0-39.983002 3.690159-39.80608 39.689839v74.310167 74.31016c-.176922 35.99969 3.707269 39.68984 39.80608 39.68984h148.387318c36.09881 0 40.77464-3.70276 39.80608-39.68984v-74.31016-74.310167c0-36.00011-3.70727-39.689839-39.80608-39.689839z" opacity=".2"/><path d="m200.95649 15.174464c35.29673 0 39.09461 3.625419 38.92162 38.993529v73.006477 73.00647c.17299 35.36812-3.62489 38.99353-38.92162 38.99353h-146.156758c-35.296716 0-38.921616-3.625-38.921616-38.99353v-73.00647-73.006477c0-35.36853 3.6249-38.993529 38.921616-38.993529z" fill="#fbfbfb"/><path d="m54.810792 239.17447c-35.296731 0-39.094875-3.62603-38.921885-38.99414v-2c-.17299 35.36811 3.625154 38.99414 38.921885 38.99414h146.156238c35.29673 0 38.92188-3.62561 38.92188-38.99414v2c0 35.36853-3.62515 38.99414-38.92188 38.99414z" opacity=".2"/><g enable-background="new" transform="matrix(1.07836604457 0 0 1.07836604457 -12.51883872763 -12.10477018174)"><path d="m201.01081 115.66968h-69.128v28.662h39.791c-3.71 18.21-19.221 28.663-39.791 28.663-24.279 0-43.836997-19.558-43.836997-43.837s19.557997-43.837003 43.836997-43.837003c10.454 0 19.895 3.709 27.314 9.779l21.581-21.581c-13.151-11.466001-30.011-18.547001-48.895-18.547001a73.973 73.973 0 0 0 -74.185996 74.186004 73.972 73.972 0 0 0 74.185996 74.186c37.093 0 70.814-26.977 70.814-74.186 0-4.384-.674-9.105-1.686-13.488z" fill="#ea4335"/><path d="m201.01081 115.66968h-69.128v28.662h39.791c-3.71 18.21-19.221 28.663-39.791 28.663-24.279 0-43.836997-19.558-43.836997-43.837 0-4.81.767-9.434 2.187-13.758-13.411-10.178-9.786-7.553-24.932999-19.127003-4.871 9.897003-7.603 21.056003-7.603 32.885003a73.972 73.972 0 0 0 74.185996 74.186c37.093 0 70.814-26.977 70.814-74.186 0-4.384-.674-9.105-1.686-13.488z" fill="#fbbc05"/><path d="m201.01081 115.66968h-69.128v28.662h39.791c-3.71 18.21-19.221 28.663-39.791 28.663-19.548 0-36.035997-12.679-41.718997-30.292-8.717 6.644-16.217 12.519-25.007999 19.046 12.011999 24.685 37.298996 41.595 66.726996 41.595 37.093 0 70.814-26.977 70.814-74.186 0-4.384-.674-9.105-1.686-13.488z" fill="#34a853"/><path d="m201.01081 115.66968h-69.128v28.662h39.791c-2.026 9.943-7.57 17.574-15.535 22.453 5.308 4.312 18.995 15 23.617 18.526 13.886-12.659 22.941-31.69 22.941-56.153 0-4.384-.674-9.105-1.686-13.488z" fill="#4285f4"/></g><path d="m54.805392 15.174464c-35.296728 0-39.09487 3.626029-38.92188 38.994139v2c-.17299-35.36811 3.625152-38.99414 38.92188-38.99414h146.156238c35.29673 0 38.92188 3.62561 38.92188 38.99414v-2c0-35.36853-3.62515-38.994139-38.92188-38.994139z" fill="#fff" opacity=".3"/></svg>

<svg xmlns="http://www.w3.org/2000/svg" xmlns:xlink="http://www.w3.org/1999/xlink" width="256" height="256" version="1.0">
 <defs>
  <linearGradient id="a">
   <stop id="stop2" offset="0" stop-color="#68676b"/>
   <stop id="stop4" offset=".8" stop-color="#424048"/>
   <stop id="stop6" offset="1" stop-color="#241f31"/>
  </linearGradient>
  <radialGradient id="d" cx="279.422" cy="446.483" r="224" fx="279.422" fy="446.483" gradientTransform="matrix(1.34416,6e-4,-6.2e-4,1.38763,-121.22,-718.103)" gradientUnits="userSpaceOnUse" xlink:href="#a"/>
  <linearGradient id="e" x1="43.844" x2="-60" y1="234" y2="234" gradientTransform="matrix(1.0015,0,0,0.99993,72.09,56.015)" gradientUnits="userSpaceOnUse" xlink:href="#b"/>
  <linearGradient id="b">
   <stop id="stop11" offset="0" stop-color="#d5d3cf"/>
   <stop id="stop13" offset=".038" stop-color="#e3e2df"/>
   <stop id="stop15" offset=".077" stop-color="#c0bfbc"/>
   <stop id="stop17" offset=".923" stop-color="#c0bfbc"/>
   <stop id="stop19" offset=".962" stop-color="#e3e2df"/>
   <stop id="stop21" offset="1" stop-color="#d5d3cf"/>
  </linearGradient>
  <linearGradient id="linearGradient1007" x1="160.305" x2="161.33" y1="240.139" y2="135.579" gradientTransform="matrix(0.54625232,0,0,0.54625232,-6.0941965,-68.413544)" gradientUnits="userSpaceOnUse" xlink:href="#linearGradient1018"/>
  <linearGradient id="linearGradient1018">
   <stop id="stop2-3" offset="0" style="stop-color:#37a6e6"/>
   <stop id="stop4-6" offset="1" style="stop-color:#1a7fd4"/>
  </linearGradient>
  <clipPath id="clipPath1082-3" clipPathUnits="userSpaceOnUse">
   <path d="M 361.9375,-212 C 507.2348,-212 528,-191.28677 528,-46.125 V 70.125 C 528,215.28618 507.2348,236 361.9375,236 H 214.0625 C 68.7652,236 48,215.28618 48,70.125 V -46.125 C 48,-191.28677 68.7652,-212 214.0625,-212 Z" style="fill:#8c59d9"/>
  </clipPath>
  <linearGradient id="linearGradient4358" x1="88" x2="488" y1="88" y2="488" gradientUnits="userSpaceOnUse" xlink:href="#linearGradient4360"/>
  <linearGradient id="linearGradient4360">
   <stop id="stop4362" offset="0" style="stop-color:#000000;stop-opacity:0.58823532"/>
   <stop id="stop4366" offset="1" style="stop-color:#000000;stop-opacity:0.20555556"/>
  </linearGradient>
  <filter style="color-interpolation-filters:sRGB" id="filter4380" width="1.106" height="1.088" x="-.05" y="-.04">
   <feGaussianBlur id="feGaussianBlur4382" stdDeviation="8.48"/>
  </filter>
  <filter style="color-interpolation-filters:sRGB" id="filter4346" width="1.026" height="1.022" x="-.01" y="-.01">
   <feGaussianBlur id="feGaussianBlur4348" stdDeviation="2.12"/>
  </filter>
 </defs>
 <path style="opacity:0.1;filter:url(#filter4346)" d="M 141.84323,74 C 71.24979,74 63.65402,81.250835 64,151.98706 V 298 444.01294 C 63.65402,514.74917 71.24979,522 141.84323,522 H 434.15677 C 504.75021,522 513.9371,514.72348 512,444.01294 V 298 151.98706 C 512,81.249993 504.75021,74 434.15677,74 Z" transform="matrix(0.5,0,0,0.5,-16.116488,-20.825537)"/>
 <path d="M 141.84323,74 C 71.24979,74 63.65402,81.250835 64,151.98706 V 298 444.01294 C 63.65402,514.74917 71.24979,522 141.84323,522 H 434.15677 C 504.75021,522 513.9371,514.72348 512,444.01294 V 298 151.98706 C 512,81.249993 504.75021,74 434.15677,74 Z" transform="matrix(0.5,0,0,0.5,-16.116488,-20.825235)" style="opacity:0.3;fill:url(#linearGradient4358);filter:url(#filter4380)"/>
 <path style="opacity:0.2" d="m 53.695112,13.174464 c -36.098811,0 -39.983002,3.690159 -39.80608,39.689839 v 74.310167 74.31016 c -0.176922,35.99969 3.707269,39.68984 39.80608,39.68984 H 202.08243 c 36.09881,0 40.77464,-3.70276 39.80608,-39.68984 V 127.17447 52.864303 c 0,-36.00011 -3.70727,-39.689839 -39.80608,-39.689839 z"/>
 <path style="fill:#fbfbfb" d="m 200.95649,15.174464 c 35.29673,0 39.09461,3.625419 38.92162,38.993529 v 73.006477 73.00647 c 0.17299,35.36812 -3.62489,38.99353 -38.92162,38.99353 H 54.799732 c -35.296716,0 -38.921616,-3.625 -38.921616,-38.99353 V 127.17447 54.167993 c 0,-35.36853 3.6249,-38.993529 38.921616,-38.993529 z"/>
 <path style="opacity:0.2" d="m 54.810792,239.17447 c -35.296731,0 -39.094875,-3.62603 -38.921885,-38.99414 v -2 c -0.17299,35.36811 3.625154,38.99414 38.921885,38.99414 H 200.96703 c 35.29673,0 38.92188,-3.62561 38.92188,-38.99414 v 2 c 0,35.36853 -3.62515,38.99414 -38.92188,38.99414 z"/>
 <g transform="matrix(2.1538462,0,0,2.1538462,-282.8631,-387.78227)">
  <g transform="translate(-11.583536,-6.7990283)">
   <g transform="matrix(2.2368133,0,0,2.2368133,-140.06094,-336.12668)">
    <g style="enable-background:new" transform="matrix(0.12974173,0,0,0.12974173,3.8344818,227.85345)">
     <g transform="matrix(24.187711,0,0,24.187711,-572.6302,-5937.6914)">
      <g style="enable-background:new" transform="matrix(0.12974173,0,0,0.12974173,3.8344818,227.85345)">
       <g transform="matrix(0.54975304,0,0,0.54975304,447.83383,144.32296)">
        <path style="isolation:isolate;fill:#ea4335" d="m 201.01081,115.66968 h -69.128 v 28.662 h 39.791 c -3.71,18.21 -19.221,28.663 -39.791,28.663 -24.279,0 -43.836997,-19.558 -43.836997,-43.837 0,-24.279 19.557997,-43.837003 43.836997,-43.837003 10.454,0 19.895,3.709 27.314,9.779 l 21.581,-21.581 c -13.151,-11.466001 -30.011,-18.547001 -48.895,-18.547001 a 73.973,73.973 0 0 0 -74.185996,74.186004 73.972,73.972 0 0 0 74.185996,74.186 c 37.093,0 70.814,-26.977 70.814,-74.186 0,-4.384 -0.674,-9.105 -1.686,-13.488 z"/>
        <path style="isolation:isolate;fill:#fbbc05" d="m 201.01081,115.66968 h -69.128 v 28.662 h 39.791 c -3.71,18.21 -19.221,28.663 -39.791,28.663 -24.279,0 -43.836997,-19.558 -43.836997,-43.837 0,-4.81 0.767,-9.434 2.187,-13.758 -13.411,-10.178 -9.786,-7.553 -24.932999,-19.127003 -4.871,9.897003 -7.603,21.056003 -7.603,32.885003 a 73.972,73.972 0 0 0 74.185996,74.186 c 37.093,0 70.814,-26.977 70.814,-74.186 0,-4.384 -0.674,-9.105 -1.686,-13.488 z"/>
        <path style="isolation:isolate;fill:#34a853" d="m 201.01081,115.66968 h -69.128 v 28.662 h 39.791 c -3.71,18.21 -19.221,28.663 -39.791,28.663 -19.548,0 -36.035997,-12.679 -41.718997,-30.292 -8.717,6.644 -16.217,12.519 -25.007999,19.046 12.011999,24.685 37.298996,41.595 66.726996,41.595 37.093,0 70.814,-26.977 70.814,-74.186 0,-4.384 -0.674,-9.105 -1.686,-13.488 z"/>
        <path style="isolation:isolate;fill:#4285f4" d="m 201.01081,115.66968 h -69.128 v 28.662 h 39.791 c -2.026,9.943 -7.57,17.574 -15.535,22.453 5.308,4.312 18.995,15 23.617,18.526 13.886,-12.659 22.941,-31.69 22.941,-56.153 0,-4.384 -0.674,-9.105 -1.686,-13.488 z"/>
       </g>
      </g>
     </g>
    </g>
   </g>
  </g>
 </g>
 <path style="opacity:0.3;fill:#ffffff" d="m 54.805392,15.174464 c -35.296728,0 -39.09487,3.626029 -38.92188,38.994139 v 2 c -0.17299,-35.36811 3.625152,-38.99414 38.92188,-38.99414 H 200.96163 c 35.29673,0 38.92188,3.62561 38.92188,38.99414 v -2 c 0,-35.36853 -3.62515,-38.994139 -38.92188,-38.994139 z"/>
</svg>
